X: 1
T: Vemodig vals
T: Melancholy waltz
C: Skogsby-Lasse
N: Edvard "Skogsby-Lasse" Larsson, (1925-2008)
N: Skogsby-Lasse spelade munspel.
R: waltz
Z: 2019 John Chambers <jc:trillian.mit.edu>
M: 3/4
L: 1/8
K: Em
|:\
"Em"B6 | G2 F2 E2 | B6 | G2 A2 G2 |\
"B7"F6 | FA G2 F2 |[1,3 "Em"E6 | "B7"B,6 :|[2,4 "Em"E6- | E4 z2 :|
|:\
"Em"e4 B2- | B2 "(Am)"c2 A2 | "Em"e4 B2- | B2 "(Am)"A2 G2 |\
"B7"F6 | FA G2 F2 |[1,3 "Em"E3 FGA | "B7"B6 :|[2,4 "Em"E6- | E4 z2 :|
